outputs/icons/charts/chart_gantt_round.svg

<svg xmlns="http://www.w3.org/2000/svg" width="1200" height="1200" fill="none"><path fill="#000" d="M200 1050c0 27.615-22.386 50-50 50s-50-22.385-50-50V150c0-27.614 22.386-50 50-50s50 22.386 50 50zm900-450c0-27.615-22.385-50-50-50H350c-27.614 0-50 22.385-50 50s22.386 50 50 50h700c27.615 0 50-22.385 50-50m-100 250c0-27.615-22.385-50-50-50H550c-27.615 0-50 22.385-50 50s22.385 50 50 50h400c27.615 0 50-22.385 50-50M900 350c0-27.614-22.385-50-50-50H350c-27.615 0-50 22.386-50 50s22.386 50 50 50h500c27.615 0 50-22.386 50-50"/></svg>

<svg width="1200" height="1200" viewBox="0 0 1200 1200" fill="none" xmlns="http://www.w3.org/2000/svg"><path d="M200 1050C200 1077.615 177.614 1100 150 1100C122.386 1100 100 1077.615 100 1050V150C100 122.386 122.386 100 150 100C177.614 100 200 122.386 200 150V1050ZM1100 600C1100 572.385 1077.615 550 1050 550H350C322.386 550 300 572.385 300 600C300 627.615 322.386 650 350 650H1050C1077.615 650 1100 627.615 1100 600ZM1000 850C1000 822.385 977.615 800 950 800H550C522.385 800 500 822.385 500 850C500 877.615 522.385 900 550 900H950C977.615 900 1000 877.615 1000 850ZM900 350C900 322.386 877.615 300 850 300H350C322.385 300 300 322.386 300 350C300 377.614 322.386 400 350 400H850C877.615 400 900 377.614 900 350Z" fill="#1D1E23"/></svg>
